X:7
T:no name
R:highland
D:Altan: Harvest Storm
Z:id:hn-hf-7
M:C|
K:Edor
GA|B<EED EFGA|B<EED G2GA|B<EBA (3B^cd ed|=cABG A2:|
|:(3efg|abag efed|(3B^cd ef g2 (3efg|1 abag efed|=cABG A2:|
[2 afge fded|=cABG A2||

